X:198010
T:Heights of Dargai
C: J Wallace
B: Scots Guard 1
H:
O:Kevin Fraser
Z:Kevin Fraser
Q:3/8=90
K:HP
M:9/8
L:1/8
R:March
U: R = ///
U: r = //
U: V = !accent!
V:M gstem=up stem=down name="Melody"
V:H gstem=up stem=down name="Harmony"
V:C gstem=up stem=down name="C-Harmony"
V:S gstem=up stem=down dyn=up stafflines=1 clef=perc middle=G name="Snare" sname="Snare"
V:B gstem=up stem=down clef=none dyn=up name="Bass"
V:T gstem=up stem=down clef=none dyn=up name="Tenor"
V:BB gstem=up stem=down name="Brass Bass" sname="ABCD-C" transpose=-1  octave=-1 clef=bass
V:BC gstem=up stem=down name="Brass Chord" sname="ABCD-D" transpose=-1
V:BD gstem=up stem=down name="Brass Chord 2" sname="ABCD-B" transpose=-1
V:P gstem=up stem=down name="Piano" octave=-1
I:MIDI=program 110
%%MIDI gracedivider 4
% %score {M H}
%%MIDI program 109 #bagpipes
%%MIDI vol 100
%%landscape
% %landscape off
[V:M]|: e      | {g}A>B{GdG}c {gef}e3 {gcd}c2e | {gfg}f>df {gef}e3 {gcd}c3 | {ag}a>gf {gef}e3 {g}A>{d}ce | {gfg}f>ec {g}B3 {GdGe}B2e | $
w:      e      | hen o dro         hete hoto e   |   chete a ve hete hoto    |  chili di ve hete hen do e  | chete e o ho   darado e   |
[V:M]          | {g}A>B{GdG}c {gef}e3 {gcd}c2e | {gfg}f>df {gef}e3 {gcd}c3 | {ag}a>gf {gef}e3 {gBd}B2e   | {gcd}c>{d}B{e}c {g}A3 {GAG}A2 :| $
w:             | hen o dro         hete hoto e   |   chete a ve hete hoto    |  chili di ve hete hotoa e   | hoto do eo hen rarin 
[V:M]|: e      | {g}A>{d}ce   {gfg}f3 {gfg}f>df  | {ag}a>gf   {gef}e3 {gcd}c3 | {ag}a>gf {gef}e3 {g}A>{d}ce | {gfg}f>ec {g}B3 {GdGe}B2e | $
w:      e      | hen  do e      che chete a ve | I di che     hete    hoto |  chili di ve hete hen do e  | chete e o ho   darado e   |
[V:M]          | {g}A>{d}ce   {gfg}f3 {gfg}f>df  | {ag}a>gf   {gef}e3 {gcd}c3 | {ag}a>gf {gef}e3 {gBd}B2e   | {gcd}c>{d}B{e}c {g}A3 {GAG}A2 :| $
w:             | hen  do e      che chete a ve | I di che     hete    hoto | chili di ve hete hotoa e   | hoto do eo hen rarin 
[V:S]|:  {A}c  | {A}c>A{A}c   (Rc3 c2) A | {A}c>A{A}c   (Rc3 c2) z | {A}c>A{A}c   (Rc3 c)>A{A}c | {c}A>cA (Rc3 c2) c | 
[V:S]          | {A}c>A{A}c   (Rc3 c2) A | {A}c>A{A}c   (Rc3 c2) z | {A}c>A{A}c   (Rc3 c)>A{A}c | {c}A>cA (Rc3 c2)  :| 
[V:S]|:  {A}c  | {A}c>A{A}c   (Rc3 c)>A{A}c | {A}c>A{A}c   (Rc3 c2) z | {A}c>A{A}c   (Rc3 c)>A{A}c | {c}A>cA (Rc3 c2) c | 
[V:S]          | {A}c>A{A}c   (Rc3 c)>A{A}c | {A}c>A{A}c   (Rc3 c2) z | {A}c>A{A}c   (Rc3 c)>A{A}c | {c}A>cA (Rc3 c2)  :| 

